public/assets/capWoman.svg

<svg width="401" height="491" fill="none" xmlns="http://www.w3.org/2000/svg"><path opacity=".747" fill-rule="evenodd" clip-rule="evenodd" d="m157.114 459.223-2.566-1.26c-41.98-20.728-87.415-48.236-113.723-93.272C14.47 319.555 7.24 256.887 3.056 199.298l-.252-3.519C-1.393 137.132-2.76 84.252 12.463 49.84 27.629 15.454 59.384-.465 98.323.01c38.937.475 85.106 17.447 124.543 59.187 39.492 41.714 72.254 108.195 96.456 175.876 24.202 67.68 39.855 136.431 31.398 182.116-8.563 45.609-41.228 68.025-76.844 72.329-35.561 4.28-74.127-9.526-116.762-30.295Z" fill="#B86767" fill-opacity=".5"/><path fill-rule="evenodd" clip-rule="evenodd" d="M255.85 153.604c3.088-1.879 15.988-12.954 10.401-14.82-5.589-1.867-36.852-46.234-112.046-8.678-63.742 31.837-42.249 130.023-35.996 138.644 6.254 8.621 10.63 41.852 79.318 15.524 68.691-26.33 63.943-22.96 63.943-22.96l-5.62-107.71Z" fill="#B77D67"/><path fill-rule="evenodd" clip-rule="evenodd" d="M314.463 284.035c-11.101 96.742-79.113 101.563-147.953 45.119-4.291-15.95-13.885-34.921-14.416-34.921-8.994 0-17.52 3.481-28.028-9.257-6.256-6.284-9.609-13.925-10.78-21.327-3.834-24.194 15.599-45.871 32.983-9.588 1.109 4.454 3.834 6.62 8.61 6.264 35.393 3.846-28.613-128.128 70.544-146.746 31.018-5.827 64.935 12.363 76.634 31.177 26.404 42.464 20.488 101.241 16.664 118.11" fill="#B77D67"/><path fill-rule="evenodd" clip-rule="evenodd" d="M315.961 283.627c-2.512 9.791-4.32 27.413-15.057 11.712-11.08-12.738 2.463-39.365 18.077-33.079.3 7.358-1.117 13.302-3.02 21.367Z" fill="#F69A75"/><path fill-rule="evenodd" clip-rule="evenodd" d="M166.51 329.154c13.059 10.549 27.418 18.995 43.032 24.863.605 1.178-.088 1.776-1.081 2.238-14.818-5.9-37-10.277-41.951-27.101ZM226.491 360.834c12.435 2.61 24.713 3.795 37.255 5.131-13.269 6.814-26.994.647-39.896-3.809.524-1.099 1.929-.568 2.641-1.322Z" fill="#5C4941"/><path fill-rule="evenodd" clip-rule="evenodd" d="M226.491 360.834c-.881.439-1.762.881-2.641 1.322-5.16-1.833-10.835-2.758-15.388-5.9.36-.745.719-1.495 1.081-2.24 5.889 1.769 11.726 3.563 16.948 6.818Z" fill="#473128"/><path fill-rule="evenodd" clip-rule="evenodd" d="M217.687 359.881c1.783-.372 3.076.26 3.931 1.788-1.31-.594-2.619-1.19-3.931-1.788Z" fill="#5C4941"/><path fill-rule="evenodd" clip-rule="evenodd" d="M179.451 284.379c.515-31.533 48.178-30.576 49.252.051.277 30.411-50.078 31-49.252-.051Z" fill="#F69973"/><path fill-rule="evenodd" clip-rule="evenodd" d="M297.471 161.907c.46.336.922.674 1.381 1.007-.459-.333-.921-.671-1.381-1.007Z" fill="#E46B33"/><path fill-rule="evenodd" clip-rule="evenodd" d="M222.254 71.864c5.089.987 10.244 1.73 15.252 3.004 17.698 4.502 33.414 12.59 47.078 24.42 13.23 11.454 22.982 25.136 28.689 41.385 2.62 7.459 4.651 15.091 4.07 23.11-1.5 1.29-3.353.89-5.074.892-28.612.025-57.223.025-85.831.012-7.766 0-15.502.933-23.275.595-2.405-.103-3.774 1.065-4.693 3.133-1.453 3.26-1.508 6.629-1.241 10.061.095 1.215.467 2.464-.481 3.547-10.599-.228-21.198-.455-31.797-.678-.336-.24-.553-.552-.55-.955.102-26.181 3.262-51.75 15.904-75.483 5.684-10.666 13.228-19.754 23.53-26.595.569-.377 1.154-.727 1.738-1.079 2.957-1.783 5.489-2.935 8.83.113 2.705 2.465 6.558 3.747 9.637 6 8.834 6.474 14.826 15.152 20.353 24.185 8.906 14.556 14.435 30.347 18.178 46.777.105.465.193.932.319 1.392.334 1.189.896 2.24 2.391 2.003 1.858-.292 1.222-1.7 1.015-2.721-2.389-11.791-5.923-23.255-10.873-34.282-4.437-9.875-9.456-19.444-16.431-27.938-4.979-6.068-10.364-11.7-17.455-15.575-1.726-.948-3.527-1.67-5.408-2.252-.957-.297-1.962-.743-1.819-1.92.14-1.128 1.2-1.498 2.176-1.602 1.939-.206 3.925-.584 5.768.451Z" fill="#93D3D3"/><path fill-rule="evenodd" clip-rule="evenodd" d="M161.166 181.319c-15.731.049-31.466.079-47.197.168-2.052.012-4.1.334-6.148.52-1.841.168-2.591-.511-2.689-2.406-1.195-23.565 5.701-44.559 21.229-62.862 12.912-15.218 28.957-26.443 47.657-34.008 8.218-3.327 16.874-5.636 25.315-8.447.762-.255 1.41-.819 2.11-1.237.16-.108.314-.24.493-.313 1.072-.433 2.439-1.187 3.134.071.736 1.323-.741 1.983-1.731 2.507-11.833 6.278-19.777 16.037-25.942 27.267-9.206 16.771-13.704 34.825-15.385 53.65-.693 7.777-.548 15.528-.279 23.298.024.668.114 1.341-.567 1.792Z" fill="#93D3D3"/><path fill-rule="evenodd" clip-rule="evenodd" d="M196.748 182.022c-.205-2.348-.762-4.729-.524-7.034.289-2.771 1.155-5.502 1.96-8.2.555-1.865 2.003-2.489 4.077-2.496 38.362-.133 76.722-.329 115.082-.51 1.341.188 2.684.54 4.027.543 24.523.029 49.045.02 73.568.02 3.905 0 5.455 1.399 5.772 5.18.095 1.12.395 2.261.252 3.349-.781 5.907-2.957 8.674-9.875 8.651-40.97-.135-81.94-.115-122.91-.023-23.81.056-47.618.339-71.429.52Z" fill="#CCF5F6"/><path fill-rule="evenodd" clip-rule="evenodd" d="M161.166 181.319c-.883-10.199-.576-20.352.61-30.537 1.452-12.472 4.389-24.578 9.039-36.249 4.206-10.562 9.666-20.48 17.843-28.828 4.265-4.355 8.711-8.405 14.352-11.078.7-.331 1.2-1.054 1.793-1.592-.724.012-1.452.028-2.181.03-.393.005-.786-.01-1.179-.018.553-4.541 5.711-8.79 10.976-9.038 4.405-.21 8.667 3.197 9.834 7.855-1.867.053-3.743.021-5.596.207-.671.067-1.288.667-1.929 1.022.567.393 1.079.975 1.712 1.152 5.435 1.52 9.885 4.642 13.917 8.265 10.97 9.863 18.4 22.038 24.472 35.135 4.913 10.595 8.63 21.53 11.287 32.822.434 1.84.686 3.721 1.179 5.546.338 1.251.548 2.412-1.167 2.544-1.433.108-3.236.706-3.76-1.592-.907-3.966-1.862-7.922-2.926-11.849-4.951-18.247-12.831-35.186-24.635-50.287-5.319-6.803-11.863-12.347-19.9-16.105-.703-.33-1.636-.621-1.965-1.194-1.536-2.687-3.331-1.624-5.262-.573-10.202 5.55-17.776 13.601-23.746 23.172-6.287 10.073-10.63 20.944-13.397 32.332a171.873 171.873 0 0 0-3.841 21.744c-.853 7.698-.879 15.48-1.296 23.227-.069 1.307-.298 2.606-.45 3.913-1.26-.01-2.524-.016-3.784-.026Z" fill="#CAF3F4"/><path d="M112.316 250.297c-.517 1.151.17 2.438 1.535 2.874 1.364.437 2.889-.143 3.406-1.294 3.543-7.889 8.467-11.344 15.068-10.858 6.527.481 12.538 7.621 17.51 21.512.422 1.178 1.896 1.845 3.293 1.489 1.397-.356 2.187-1.6 1.765-2.778-5.625-15.718-12.838-23.982-22.108-24.665-9.2-.678-16.13 4.056-20.469 13.72Z" fill="#33241F"/><path d="M130.487 250.315c-5.165 0-7.918 4.621-8.677 13.261l-.141 1.864c2.788 3.256 4.364 2.766 4.73-1.47.548-6.353 2.095-9.253 4.088-9.253l.161.008.182.028c1.83.394 4.185 4.447 6.314 11.906l.205.739-.407.134c-3.264 1.168-4.95 4.122-4.95 8.413 0 5.604 2.909 8.873 8.202 8.873h1.315c.425-2.879-.126-4.348-1.653-4.41-2.29-.092-3.257-1.285-3.257-4.463 0-3.306 1.048-4.517 3.629-4.553l2.872-.04-.862-3.455-.434-1.639c-2.925-10.664-6.434-15.943-11.317-15.943Z" fill="#33241F"/><path fill-rule="evenodd" clip-rule="evenodd" d="M276.297 258.692c2.534 8.037 5.598 15.865 10.728 22.733 2.121 2.841 1.764 5.47-.315 7.823-5.27 5.976-12.44 8.065-20.236 8.596-.507.035-1.538-.6-1.505-.791.122-.693.419-1.659.962-1.926 1.872-.917 3.898-1.531 5.822-2.353 3.056-1.304 6.213-2.452 9.068-4.087 3.263-1.866 3.284-2.747 1.358-5.817-1.529-2.443-3.098-4.865-4.537-7.359-3.233-5.603-5.81-11.45-6.632-17.897-.111-.978-.8-1.831-.659-2.862l-.795-5.665c-.824-4.007-.872-8.014.04-12.017.457-9.93 4.448-18.548 10.156-26.654 4.258-6.048 9.873-9.884 17.15-11.715 5.399-1.36 10.835-1.502 16.338-1.081 2.384.184 4.032 1.039 4.182 3.652.045.755.526 1.479.757 2.229 1.338 4.366.636 5.39-4.253 5.691-9.399.587-18.598 1.957-27.573 4.941-2.884.959-4.691 2.337-6.101 4.773-5.598 9.69-6.539 20.131-5.529 30.91.231 2.433.545 4.862.824 7.296.228.536.726.955.75 1.58Z" fill="#382924"/><mask id="a" style="mask-type:alpha" maskUnits="userSpaceOnUse" x="230" y="307" width="61" height="25"><path fill-rule="evenodd" clip-rule="evenodd" d="M230.017 307.82h60.424v24.119h-60.424V307.82Z" fill="#fff"/></mask><g mask="url(#a)"><path fill-rule="evenodd" clip-rule="evenodd" d="M276.42 308.091c3.388 0 6.777-.06 10.163.019 3.124.073 4.936 2.226 3.158 4.073-3.568 3.706-3.787 8.495-5.682 12.709-1.936 4.306-5.098 7.004-10.182 6.99-3.372-.011-6.825.272-10.1-.32-11.063-1.989-21.602-5.371-30.478-12.43-1.581-1.258-4.15-2.601-2.99-4.78.759-1.43 3.221-2.371 5.103-2.817 3.888-.92 7.875-1.647 11.863-1.953 9.694-.739 19.412-1.194 29.121-1.762.009.089.017.181.024.271Z" fill="#392A25"/></g><path fill-rule="evenodd" clip-rule="evenodd" d="M249.446 210.988c-1.91 4-5.127 4.725-9.43 4.193-11.178-1.378-22.382-1.382-33.609-.092-5.032.578-10.147.504-15.226.658-.541.019-1.098-.416-1.646-.642.324-.669.465-1.713.996-1.955 5.343-2.422 10.654-4.968 16.164-6.997 12.016-4.426 24.401-4.559 36.819-1.905 2.069.444 3.844 2.183 5.753 3.322a6.529 6.529 0 0 1 .179 3.418Z" fill="#342520"/><path fill-rule="evenodd" clip-rule="evenodd" d="M236.711 251.36c-2.01-.379-3.448-.552-4.827-.927-7.342-1.996-14.578-2.18-21.663.983-.576.257-1.126.699-1.719.759-.741.069-1.512-.173-2.272-.279.186-.54.245-1.173.579-1.612 4.329-5.675 10.058-8.725 17.436-7.848 4.036.48 7.986 1.64 11.97 2.502.41.088.819.214 1.193.389 2.151 1.001 4.213 3.8 3.267 4.619-1.071.925-2.874 1.063-3.964 1.414Z" fill="#382924"/><path fill-rule="evenodd" clip-rule="evenodd" d="M316.582 244.098c-.909.815-1.412 1.484-2.088 1.801-.491.228-1.343.2-1.81-.073-5.984-3.517-11.28-.729-16.683 1.543-2.293.964-4.682 1.73-7.07 2.452-.493.152-1.412-.124-1.707-.508-.286-.375-.239-1.251.021-1.723 4.532-8.232 18.119-11.671 26.149-6.586 1.138.723 1.974 1.894 3.188 3.094Z" fill="#3D2E2A"/><path fill-rule="evenodd" clip-rule="evenodd" d="m269.595 237.07-.038 12.018c-1.4-4.011-1.364-8.016.038-12.018ZM249.446 210.988l-.179-3.418c1.481 1.069 1.312 2.22.179 3.418ZM270.352 254.752l.657 2.862-.657-2.862Z" fill="#877D7B"/><path fill-rule="evenodd" clip-rule="evenodd" d="m276.297 258.692-.75-1.58.75 1.58Z" fill="#AAA4A2"/><path fill-rule="evenodd" clip-rule="evenodd" d="M270.357 327.674c-12.063-.881-21.881-4.745-31.073-10.266-.581-.347-.786-1.279-1.167-1.936.703-.341 1.393-.95 2.107-.978 12.912-.506 25.825-1.007 38.742-1.341 3.162-.083 3.462.639 2.583 3.832-1.221 4.437-2.66 8.711-8.072 9.978-1.4.329-2.805.64-3.12.711Z" fill="#FAF9F9"/></svg>

<svg width="401" height="491" viewBox="0 0 401 491" fill="none" xmlns="http://www.w3.org/2000/svg">
<path opacity="0.74707" fill-rule="evenodd" clip-rule="evenodd" d="M157.114 459.223L154.548 457.963C112.568 437.235 67.1335 409.727 40.8251 364.691C14.4692 319.555 7.23931 256.887 3.05629 199.298L2.8039 195.779C-1.39329 137.132 -2.75968 84.252 12.4626 49.84C27.629 15.4538 59.3844 -0.464654 98.3224 0.0103147C137.26 0.485285 183.429 17.4575 222.866 59.1973C262.358 100.911 295.12 167.392 319.322 235.073C343.524 302.753 359.177 371.504 350.72 417.189C342.157 462.798 309.492 485.214 273.876 489.518C238.315 493.798 199.749 479.992 157.114 459.223Z" fill="#B86767" fill-opacity="0.5"/>
<path fill-rule="evenodd" clip-rule="evenodd" d="M255.85 153.604C258.938 151.725 271.838 140.65 266.251 138.784C260.662 136.917 229.399 92.5503 154.205 130.106C90.4627 161.943 111.956 260.129 118.209 268.75C124.463 277.371 128.839 310.602 197.527 284.274C266.218 257.944 261.47 261.314 261.47 261.314L255.85 153.604Z" fill="#B77D67"/>
<path fill-rule="evenodd" clip-rule="evenodd" d="M314.463 284.035C303.362 380.777 235.35 385.598 166.51 329.154C162.219 313.204 152.625 294.233 152.094 294.233C143.1 294.233 134.574 297.714 124.066 284.976C117.81 278.692 114.457 271.051 113.286 263.649C109.452 239.455 128.885 217.778 146.269 254.061C147.378 258.515 150.103 260.681 154.879 260.325C190.272 264.171 126.266 132.197 225.423 113.579C256.441 107.752 290.358 125.942 302.057 144.756C328.461 187.22 322.545 245.997 318.721 262.866" fill="#B77D67"/>
<path fill-rule="evenodd" clip-rule="evenodd" d="M315.961 283.627C313.449 293.418 311.641 311.04 300.904 295.339C289.824 282.601 303.367 255.974 318.981 262.26C319.281 269.618 317.864 275.562 315.961 283.627Z" fill="#F69A75"/>
<path fill-rule="evenodd" clip-rule="evenodd" d="M166.51 329.154C179.569 339.703 193.928 348.149 209.542 354.017C210.147 355.195 209.454 355.793 208.461 356.255C193.643 350.355 171.461 345.978 166.51 329.154Z" fill="#5C4941"/>
<path fill-rule="evenodd" clip-rule="evenodd" d="M226.491 360.834C238.926 363.444 251.204 364.629 263.746 365.965C250.477 372.779 236.752 366.612 223.85 362.156C224.374 361.057 225.779 361.588 226.491 360.834Z" fill="#5C4941"/>
<path fill-rule="evenodd" clip-rule="evenodd" d="M226.491 360.834C225.61 361.273 224.729 361.715 223.85 362.156C218.69 360.323 213.015 359.398 208.462 356.256C208.822 355.511 209.181 354.761 209.543 354.016C215.432 355.785 221.269 357.579 226.491 360.834Z" fill="#473128"/>
<path fill-rule="evenodd" clip-rule="evenodd" d="M217.687 359.881C219.47 359.509 220.763 360.141 221.618 361.669C220.308 361.075 218.999 360.479 217.687 359.881Z" fill="#5C4941"/>
<path fill-rule="evenodd" clip-rule="evenodd" d="M179.451 284.379C179.966 252.846 227.629 253.803 228.703 284.43C228.98 314.841 178.625 315.43 179.451 284.379Z" fill="#F69973"/>
<path fill-rule="evenodd" clip-rule="evenodd" d="M297.471 161.907C297.931 162.243 298.393 162.581 298.852 162.914C298.393 162.581 297.931 162.243 297.471 161.907Z" fill="#E46B33"/>
<path fill-rule="evenodd" clip-rule="evenodd" d="M222.254 71.8643C227.343 72.8511 232.498 73.5941 237.506 74.8684C255.204 79.3699 270.92 87.4574 284.584 99.2873C297.814 110.742 307.566 124.424 313.273 140.673C315.893 148.132 317.924 155.764 317.343 163.783C315.843 165.073 313.99 164.673 312.269 164.675C283.657 164.7 255.046 164.7 226.438 164.687C218.672 164.687 210.936 165.62 203.163 165.282C200.758 165.179 199.389 166.347 198.47 168.415C197.017 171.675 196.962 175.044 197.229 178.476C197.324 179.691 197.696 180.94 196.748 182.023C186.149 181.795 175.55 181.568 164.951 181.345C164.615 181.105 164.398 180.793 164.401 180.39C164.503 154.209 167.663 128.64 180.305 104.907C185.989 94.2407 193.533 85.1526 203.835 78.3118C204.404 77.9346 204.989 77.5849 205.573 77.233C208.53 75.4503 211.062 74.2979 214.403 77.3457C217.108 79.8115 220.961 81.0927 224.04 83.3469C232.874 89.8197 238.866 98.4983 244.393 107.531C253.299 122.087 258.828 137.878 262.571 154.308C262.676 154.773 262.764 155.24 262.89 155.7C263.224 156.889 263.786 157.94 265.281 157.703C267.139 157.411 266.503 156.003 266.296 154.982C263.907 143.191 260.373 131.727 255.423 120.7C250.986 110.825 245.967 101.256 238.992 92.7616C234.013 86.6937 228.628 81.0628 221.537 77.187C219.811 76.2393 218.01 75.517 216.129 74.9351C215.172 74.6384 214.167 74.1921 214.31 73.0144C214.45 71.8873 215.51 71.517 216.486 71.4135C218.425 71.2065 220.411 70.8292 222.254 71.8643Z" fill="#93D3D3"/>
<path fill-rule="evenodd" clip-rule="evenodd" d="M161.166 181.319C145.435 181.368 129.7 181.398 113.969 181.487C111.917 181.499 109.869 181.821 107.821 182.007C105.98 182.175 105.23 181.496 105.132 179.601C103.937 156.036 110.833 135.042 126.361 116.739C139.273 101.521 155.318 90.2958 174.018 82.7305C182.236 79.4044 190.892 77.095 199.333 74.2841C200.095 74.0288 200.743 73.4652 201.443 73.0466C201.603 72.9385 201.757 72.8074 201.936 72.7338C203.008 72.3013 204.375 71.5469 205.07 72.8051C205.806 74.1277 204.329 74.7879 203.339 75.3123C191.506 81.5896 183.562 91.3493 177.397 102.579C168.191 119.35 163.693 137.404 162.012 156.229C161.319 164.006 161.464 171.757 161.733 179.527C161.757 180.195 161.847 180.868 161.166 181.319Z" fill="#93D3D3"/>
<path fill-rule="evenodd" clip-rule="evenodd" d="M196.748 182.022C196.543 179.674 195.986 177.293 196.224 174.988C196.513 172.217 197.379 169.486 198.184 166.788C198.739 164.923 200.187 164.299 202.261 164.292C240.623 164.159 278.983 163.963 317.343 163.782C318.684 163.97 320.027 164.322 321.37 164.325C345.893 164.354 370.415 164.345 394.938 164.345C398.843 164.345 400.393 165.744 400.71 169.525C400.805 170.645 401.105 171.786 400.962 172.874C400.181 178.781 398.005 181.548 391.087 181.525C350.117 181.39 309.147 181.41 268.177 181.502C244.367 181.558 220.559 181.841 196.748 182.022Z" fill="#CCF5F6"/>
<path fill-rule="evenodd" clip-rule="evenodd" d="M161.166 181.319C160.283 171.12 160.59 160.967 161.776 150.782C163.228 138.31 166.165 126.204 170.815 114.533C175.021 103.971 180.481 94.0521 188.658 85.7046C192.923 81.3504 197.369 77.2997 203.01 74.6269C203.71 74.2956 204.21 73.5734 204.803 73.0351C204.079 73.0466 203.351 73.0627 202.622 73.065C202.229 73.0696 201.836 73.0558 201.443 73.0466C201.996 68.506 207.154 64.2576 212.419 64.0091C216.824 63.7998 221.086 67.2064 222.253 71.8643C220.386 71.9172 218.51 71.885 216.657 72.0713C215.986 72.1381 215.369 72.7384 214.728 73.0926C215.295 73.486 215.807 74.0679 216.44 74.245C221.875 75.7655 226.325 78.8868 230.357 82.5097C241.327 92.3729 248.757 104.548 254.829 117.645C259.742 128.24 263.459 139.175 266.116 150.467C266.55 152.307 266.802 154.188 267.295 156.013C267.633 157.264 267.843 158.425 266.128 158.557C264.695 158.665 262.892 159.263 262.368 156.965C261.461 152.999 260.506 149.043 259.442 145.116C254.491 126.869 246.611 109.93 234.807 94.8295C229.488 88.0255 222.944 82.4821 214.907 78.7235C214.204 78.3946 213.271 78.1025 212.942 77.5297C211.406 74.8431 209.611 75.9058 207.68 76.957C197.478 82.5074 189.904 90.5581 183.934 100.129C177.647 110.202 173.304 121.073 170.537 132.461C168.796 139.608 167.503 146.904 166.696 154.205C165.843 161.903 165.817 169.685 165.4 177.432C165.331 178.739 165.102 180.038 164.95 181.345C163.69 181.335 162.426 181.329 161.166 181.319Z" fill="#CAF3F4"/>
<path d="M112.316 250.297C111.799 251.448 112.486 252.735 113.851 253.171C115.215 253.608 116.74 253.028 117.257 251.877C120.8 243.988 125.724 240.533 132.325 241.019C138.852 241.5 144.863 248.64 149.835 262.531C150.257 263.709 151.731 264.376 153.128 264.02C154.525 263.664 155.315 262.42 154.893 261.242C149.268 245.524 142.055 237.26 132.785 236.577C123.585 235.899 116.655 240.633 112.316 250.297Z" fill="#33241F"/>
<path d="M130.487 250.315C125.322 250.315 122.569 254.936 121.81 263.576L121.669 265.44C124.457 268.696 126.033 268.206 126.399 263.97C126.947 257.617 128.494 254.717 130.487 254.717L130.648 254.725L130.83 254.753C132.66 255.147 135.015 259.2 137.144 266.659L137.349 267.398L136.942 267.532C133.678 268.7 131.992 271.654 131.992 275.945C131.992 281.549 134.901 284.818 140.194 284.818H141.509C141.934 281.939 141.383 280.47 139.856 280.408C137.566 280.316 136.599 279.123 136.599 275.945C136.599 272.639 137.647 271.428 140.228 271.392L143.1 271.352L142.238 267.897L141.804 266.258C138.879 255.594 135.37 250.315 130.487 250.315Z" fill="#33241F"/>
<path fill-rule="evenodd" clip-rule="evenodd" d="M276.297 258.692C278.831 266.729 281.895 274.557 287.025 281.425C289.146 284.266 288.789 286.895 286.71 289.248C281.44 295.224 274.27 297.313 266.474 297.844C265.967 297.879 264.936 297.244 264.969 297.053C265.091 296.36 265.388 295.394 265.931 295.127C267.803 294.21 269.829 293.596 271.753 292.774C274.809 291.47 277.966 290.322 280.821 288.687C284.084 286.821 284.105 285.94 282.179 282.87C280.65 280.427 279.081 278.005 277.642 275.511C274.409 269.908 271.832 264.061 271.01 257.614C270.899 256.636 270.21 255.783 270.351 254.752C270.087 252.864 269.822 250.977 269.556 249.087C268.732 245.08 268.684 241.073 269.596 237.07C270.053 227.14 274.044 218.522 279.752 210.416C284.01 204.368 289.625 200.532 296.902 198.701C302.301 197.341 307.737 197.199 313.24 197.62C315.624 197.804 317.272 198.659 317.422 201.272C317.467 202.027 317.948 202.751 318.179 203.501C319.517 207.867 318.815 208.891 313.926 209.192C304.527 209.779 295.328 211.149 286.353 214.133C283.469 215.092 281.662 216.47 280.252 218.906C274.654 228.596 273.713 239.037 274.723 249.816C274.954 252.249 275.268 254.678 275.547 257.112C275.775 257.648 276.273 258.067 276.297 258.692Z" fill="#382924"/>
<mask id="mask0" style="mask-type:alpha" maskUnits="userSpaceOnUse" x="230" y="307" width="61" height="25">
<path fill-rule="evenodd" clip-rule="evenodd" d="M230.017 307.82H290.441V331.939H230.017V307.82Z" fill="white"/>
</mask>
<g mask="url(#mask0)">
<path fill-rule="evenodd" clip-rule="evenodd" d="M276.42 308.091C279.808 308.091 283.197 308.031 286.583 308.11C289.707 308.183 291.519 310.336 289.741 312.183C286.173 315.889 285.954 320.678 284.059 324.892C282.123 329.198 278.961 331.896 273.877 331.882C270.505 331.871 267.052 332.154 263.777 331.562C252.714 329.573 242.175 326.191 233.299 319.132C231.718 317.874 229.149 316.531 230.309 314.352C231.068 312.922 233.53 311.981 235.412 311.535C239.3 310.615 243.287 309.888 247.275 309.582C256.969 308.843 266.687 308.388 276.396 307.82C276.405 307.909 276.413 308.001 276.42 308.091Z" fill="#392A25"/>
</g>
<path fill-rule="evenodd" clip-rule="evenodd" d="M249.446 210.988C247.536 214.988 244.319 215.713 240.016 215.181C228.838 213.803 217.634 213.799 206.407 215.089C201.375 215.667 196.26 215.593 191.181 215.747C190.64 215.766 190.083 215.331 189.535 215.105C189.859 214.436 190 213.392 190.531 213.15C195.874 210.728 201.185 208.182 206.695 206.153C218.711 201.727 231.096 201.594 243.514 204.248C245.583 204.692 247.358 206.431 249.267 207.57C249.627 208.695 249.694 209.833 249.446 210.988Z" fill="#342520"/>
<path fill-rule="evenodd" clip-rule="evenodd" d="M236.711 251.36C234.701 250.981 233.263 250.808 231.884 250.433C224.542 248.437 217.306 248.253 210.221 251.416C209.645 251.673 209.095 252.115 208.502 252.175C207.761 252.244 206.99 252.002 206.23 251.896C206.416 251.356 206.475 250.723 206.809 250.284C211.138 244.609 216.867 241.559 224.245 242.436C228.281 242.916 232.231 244.076 236.215 244.938C236.625 245.026 237.034 245.152 237.408 245.327C239.559 246.328 241.621 249.127 240.675 249.946C239.604 250.871 237.801 251.009 236.711 251.36Z" fill="#382924"/>
<path fill-rule="evenodd" clip-rule="evenodd" d="M316.582 244.098C315.673 244.913 315.17 245.582 314.494 245.899C314.003 246.127 313.151 246.099 312.684 245.826C306.7 242.309 301.404 245.097 296.001 247.369C293.708 248.333 291.319 249.099 288.931 249.821C288.438 249.973 287.519 249.697 287.224 249.313C286.938 248.938 286.985 248.062 287.245 247.59C291.777 239.358 305.364 235.919 313.394 241.004C314.532 241.727 315.368 242.898 316.582 244.098Z" fill="#3D2E2A"/>
<path fill-rule="evenodd" clip-rule="evenodd" d="M269.595 237.07C269.583 241.076 269.569 245.081 269.557 249.088C268.157 245.077 268.193 241.072 269.595 237.07Z" fill="#877D7B"/>
<path fill-rule="evenodd" clip-rule="evenodd" d="M249.446 210.988C249.386 209.849 249.327 208.708 249.267 207.57C250.748 208.639 250.579 209.79 249.446 210.988Z" fill="#877D7B"/>
<path fill-rule="evenodd" clip-rule="evenodd" d="M270.352 254.752C270.571 255.707 270.79 256.659 271.009 257.614C270.79 256.659 270.571 255.707 270.352 254.752Z" fill="#877D7B"/>
<path fill-rule="evenodd" clip-rule="evenodd" d="M276.297 258.692C276.047 258.166 275.797 257.639 275.547 257.112C275.797 257.639 276.047 258.166 276.297 258.692Z" fill="#AAA4A2"/>
<path fill-rule="evenodd" clip-rule="evenodd" d="M270.357 327.674C258.294 326.793 248.476 322.929 239.284 317.408C238.703 317.061 238.498 316.129 238.117 315.472C238.82 315.131 239.51 314.522 240.224 314.494C253.136 313.988 266.049 313.487 278.966 313.153C282.128 313.07 282.428 313.792 281.549 316.985C280.328 321.422 278.889 325.696 273.477 326.963C272.077 327.292 270.672 327.603 270.357 327.674Z" fill="#FAF9F9"/>
</svg>
